img/partners/sber-bank.svg

<svg width="325" height="82" viewBox="0 0 325 82" fill="none" xmlns="http://www.w3.org/2000/svg">
<path d="M146.689 31.6088L152.848 27.0703H132.425V53.9775H152.848V49.4389H138.26V42.6311H150.579V38.0925H138.26V31.6088H146.689ZM121.24 31.6088L127.4 27.0703H104.059V53.9775H116.216C123.023 53.9775 126.914 50.8978 126.914 45.5487C126.914 40.3618 123.348 37.6062 116.864 37.6062H109.732V31.6088H121.24V31.6088ZM116.054 41.9827C119.782 41.9827 121.403 43.2795 121.403 45.7108C121.403 48.1422 119.62 49.4389 116.054 49.4389H109.894V41.9827H116.054ZM169.22 27.0703H158.197V53.9775H164.033V46.3592H169.382C176.514 46.3592 180.89 42.6311 180.89 36.6337C180.89 30.6363 176.352 27.0703 169.22 27.0703V27.0703ZM169.22 41.8206H164.033V31.4467H169.22C172.948 31.4467 175.055 33.2298 175.055 36.6337C174.893 40.0376 172.948 41.8206 169.22 41.8206ZM94.1711 48.1422C92.5502 48.9527 90.9293 49.4389 89.1463 49.4389C83.9593 49.4389 80.0691 45.7108 80.0691 40.5239C80.0691 35.337 83.7972 31.6088 89.1463 31.6088C91.0914 31.6088 92.8744 32.2572 94.4953 33.2298L98.7097 30.15L98.3855 29.8258C95.9541 27.7186 92.7123 26.584 88.9842 26.584C84.9319 26.584 81.3659 27.8807 78.6103 30.4742C76.0168 33.0677 74.3959 36.6337 74.558 40.3618C74.558 44.0899 76.0168 47.6559 78.6103 50.4115C81.3659 53.005 85.094 54.4638 88.8221 54.3017C93.0365 54.3017 96.6025 52.8429 99.196 50.2494L95.4679 47.4938L94.1711 48.1422ZM269.068 38.0925H256.587V27.0703H250.752V53.9775H256.587V42.9553H269.068V53.9775H274.904V27.0703H269.068V38.0925ZM229.68 27.0703L218.009 53.9775H223.845L226.114 48.6285H238.433L240.702 53.9775H246.862L235.515 27.0703H229.68V27.0703ZM228.059 44.0899L232.598 33.2298L236.812 44.0899H228.059ZM295.976 40.0376L306.512 27.0703H299.866L291.113 38.5788H287.871V27.0703H282.036V53.9775H287.871V43.1174H291.599L300.514 53.9775H307.97L295.976 40.0376ZM205.852 37.6062H198.72V31.6088H213.957V27.0703H192.885V53.9775H205.042C211.85 53.9775 215.74 50.8978 215.74 45.5487C215.902 40.3618 212.336 37.6062 205.852 37.6062V37.6062ZM204.88 49.601H198.72V42.1448H204.88C208.608 42.1448 210.229 43.4415 210.229 45.8729C210.391 48.3043 208.446 49.601 204.88 49.601V49.601Z" fill="#253256"/>
<path d="M55.8949 26.5526C56.9472 27.9314 57.838 29.4294 58.5494 31.0164L38.3707 46.0914L29.9375 40.7338V34.2884L38.3707 39.646L55.8949 26.5526Z" fill="#253256"/>
<path d="M21.3287 40.2781C21.3287 39.9889 21.3356 39.7016 21.3495 39.4159L16.2388 39.1621C16.2214 39.5323 16.2109 39.9061 16.2109 40.2833C16.2088 43.2307 16.7808 46.1495 17.8943 48.8722C19.0077 51.595 20.6407 54.0682 22.6994 56.1498L26.3246 52.4776C24.7398 50.8781 23.4826 48.9768 22.6253 46.8832C21.7679 44.7895 21.3273 42.5448 21.3287 40.2781Z" fill="#9AACDE"/>
<path d="M38.3599 23.0151C38.6451 23.0151 38.9286 23.0257 39.2104 23.0398L39.4661 17.8585C39.0998 17.8409 38.7309 17.832 38.3599 17.832C35.4502 17.8285 32.5687 18.4074 29.8805 19.5355C27.1923 20.6637 24.7505 22.3189 22.6953 24.4061L26.3205 28.0801C27.8989 26.4734 29.7752 25.1989 31.8413 24.3297C33.9075 23.4604 36.1227 23.0137 38.3599 23.0151Z" fill="#9AACDE"/>
<path d="M38.358 57.5436C38.0728 57.5436 37.7892 57.5436 37.5057 57.5207L37.25 62.7002C37.6176 62.719 37.987 62.7285 38.358 62.7285C41.2665 62.7315 44.1466 62.1522 46.8334 61.0237C49.5201 59.8953 51.9603 58.2398 54.014 56.1527L50.3957 52.4805C48.817 54.0862 46.941 55.3601 44.8752 56.229C42.8095 57.0979 40.5947 57.5447 38.358 57.5436Z" fill="#9AACDE"/>
<path d="M47.9687 26.0278L52.2757 22.8105C48.339 19.5798 43.425 17.8211 38.3594 17.8301V23.015C41.7896 23.0107 45.1401 24.0612 47.9687 26.0278Z" fill="#9AACDE"/>
<path d="M60.5168 40.2789C60.5196 38.9301 60.4032 37.5837 60.1689 36.2559L55.4009 39.817C55.4009 39.9705 55.4009 40.1238 55.4009 40.2789C55.4021 42.6911 54.9031 45.0767 53.9365 47.2809C52.9697 49.4852 51.5567 51.459 49.7891 53.0743L53.2282 56.9265C55.5262 54.8239 57.3625 52.2555 58.6181 49.3877C59.8739 46.5198 60.5207 43.4164 60.5168 40.2789Z" fill="#9AACDE"/>
<path d="M38.364 57.5447C35.9836 57.5455 33.6296 57.0397 31.4543 56.06C29.2791 55.0803 27.3312 53.6485 25.7366 51.8574L21.9375 55.341C24.0118 57.6703 26.5461 59.5317 29.3759 60.8045C32.2057 62.0773 35.2679 62.7332 38.364 62.7294V57.5447Z" fill="#9AACDE"/>
<path d="M26.9404 27.4829L23.5031 23.6309C21.2044 25.733 19.3674 28.3012 18.1111 31.1691C16.8549 34.037 16.2075 37.1405 16.211 40.2783H21.3287C21.3276 37.8663 21.8266 35.4807 22.7933 33.2764C23.7601 31.0722 25.1729 29.0984 26.9404 27.4829Z" fill="#9AACDE"/>
</svg>

<svg width="325" height="82" fill="none" xmlns="http://www.w3.org/2000/svg"><path d="M146.689 31.609l6.159-4.539h-20.423v26.907h20.423V49.44H138.26v-6.81h12.319v-4.538H138.26v-6.484h8.429zm-25.449 0l6.16-4.539h-23.341v26.907h12.157c6.807 0 10.698-3.08 10.698-8.428 0-5.187-3.566-7.943-10.05-7.943h-7.132V31.61h11.508zm-5.186 10.374c3.728 0 5.349 1.297 5.349 3.728s-1.783 3.728-5.349 3.728h-6.16v-7.456h6.16zM169.22 27.07h-11.023v26.907h5.836V46.36h5.349c7.132 0 11.508-3.728 11.508-9.725 0-5.998-4.538-9.564-11.67-9.564zm0 14.75h-5.187V31.448h5.187c3.728 0 5.835 1.783 5.835 5.187-.162 3.404-2.107 5.187-5.835 5.187zm-75.049 6.322c-1.62.81-3.242 1.297-5.025 1.297-5.187 0-9.077-3.728-9.077-8.915 0-5.187 3.728-8.915 9.077-8.915 1.945 0 3.728.648 5.35 1.62l4.214-3.079-.325-.324c-2.43-2.107-5.673-3.242-9.4-3.242-4.053 0-7.62 1.297-10.375 3.89-2.593 2.594-4.214 6.16-4.052 9.888 0 3.728 1.459 7.294 4.052 10.05 2.756 2.593 6.484 4.052 10.212 3.89 4.215 0 7.78-1.46 10.374-4.053l-3.728-2.755-1.297.648zm174.897-10.05h-12.481V27.07h-5.835v26.907h5.835V42.956h12.481v11.023h5.836V27.07h-5.836v11.023zM229.68 27.07l-11.671 26.907h5.836l2.269-5.348h12.319l2.269 5.349h6.16L235.515 27.07h-5.835zm-1.621 17.02l4.539-10.86 4.214 10.86h-8.753zm67.917-4.052l10.536-12.968h-6.646l-8.753 11.509h-3.242V27.07h-5.835v26.907h5.835v-10.86h3.728l8.915 10.86h7.456l-11.994-13.94zm-90.124-2.432h-7.132V31.61h15.237v-4.54h-21.072v26.907h12.157c6.808 0 10.698-3.08 10.698-8.428.162-5.187-3.404-7.943-9.888-7.943zm-.972 11.995h-6.16v-7.456h6.16c3.728 0 5.349 1.296 5.349 3.728.162 2.431-1.783 3.728-5.349 3.728zM55.895 26.553a22.584 22.584 0 012.654 4.463L38.371 46.091l-8.434-5.357v-6.446l8.434 5.358 17.524-13.093z" fill="#253256"/><path d="M21.329 40.278c0-.29.007-.576.02-.862l-5.11-.254a22.652 22.652 0 001.655 9.71A22.41 22.41 0 0022.7 56.15l3.626-3.672a17.216 17.216 0 01-3.7-5.595 17.404 17.404 0 01-1.296-6.605zM38.36 23.015c.285 0 .569.01.85.025l.256-5.181a23.051 23.051 0 00-1.106-.027 21.84 21.84 0 00-8.48 1.703 22.075 22.075 0 00-7.185 4.871l3.625 3.674a16.96 16.96 0 015.521-3.75 16.778 16.778 0 016.519-1.315zm-.002 34.529c-.285 0-.569 0-.852-.023l-.256 5.18a21.823 21.823 0 009.583-1.677 22.062 22.062 0 007.181-4.871l-3.618-3.672a16.971 16.971 0 01-5.52 3.748 16.784 16.784 0 01-6.518 1.315z" fill="#9AACDE"/><path d="M47.969 26.028l4.307-3.217a21.87 21.87 0 00-13.917-4.98v5.184a16.792 16.792 0 019.61 3.013zm12.548 14.251a22.879 22.879 0 00-.348-4.023L55.4 39.817v.462a17.417 17.417 0 01-1.465 7.002 17.21 17.21 0 01-4.147 5.793l3.44 3.852a22.383 22.383 0 005.39-7.538 22.644 22.644 0 001.898-9.11zM38.364 57.545c-2.38 0-4.734-.505-6.91-1.485a17.011 17.011 0 01-5.717-4.203l-3.8 3.484a22.106 22.106 0 007.439 5.463 21.841 21.841 0 008.988 1.925v-5.184zM26.94 27.483l-3.437-3.852a22.38 22.38 0 00-5.392 7.538 22.646 22.646 0 00-1.9 9.11h5.118a17.418 17.418 0 011.464-7.003 17.214 17.214 0 014.147-5.793z" fill="#9AACDE"/></svg>
